src/assets/PolygonIcons3.svg

<svg width="117" height="122" viewBox="0 0 117 122" fill="none" xmlns="http://www.w3.org/2000/svg">
<g filter="url(#filter0_bd_1735_165)">
<path d="M53.5 90.1132C56.594 91.8996 60.406 91.8996 63.5 90.1132L81.2128 79.8868C84.3068 78.1004 86.2128 74.7992 86.2128 71.2265V50.7735C86.2128 47.2008 84.3068 43.8996 81.2128 42.1133L63.5 31.8867C60.406 30.1004 56.594 30.1004 53.5 31.8867L35.7872 42.1133C32.6932 43.8996 30.7872 47.2008 30.7872 50.7735V71.2265C30.7872 74.7992 32.6932 78.1004 35.7872 79.8868L53.5 90.1132Z" fill="url(#paint0_radial_1735_165)"/>
<path d="M53.75 89.6802C56.6893 91.3772 60.3107 91.3772 63.25 89.6802L80.9628 79.4537C83.9021 77.7567 85.7128 74.6205 85.7128 71.2265V50.7735C85.7128 47.3795 83.9021 44.2433 80.9628 42.5463L63.25 32.3198C60.3107 30.6227 56.6893 30.6227 53.75 32.3198L36.0372 42.5463C33.0979 44.2433 31.2872 47.3795 31.2872 50.7735V71.2265C31.2872 74.6205 33.0979 77.7567 36.0372 79.4537L53.75 89.6802Z" stroke="url(#paint1_linear_1735_165)" style="mix-blend-mode:overlay"/>
</g>
<path d="M52.2422 74.1016C49.8633 74.1016 48.6445 72.8945 48.6445 70.4805L48.6445 52.668C48.6445 50.2188 49.8516 48.9883 52.2773 48.9883L64.7227 48.9883C67.1484 48.9883 68.3555 50.2305 68.3555 52.668L68.3555 66.1094C68.3555 67.2813 67.8164 67.8555 67.3711 68.3008C65.918 69.7656 66.2227 71.6758 67.6992 72.2617C68.0742 72.3906 68.3555 72.7539 68.3555 73.1641C68.3555 73.6914 67.9336 74.1016 67.418 74.1016L52.2422 74.1016ZM64.6289 50.875L53.4492 50.875L53.4492 66.8477L65.4492 66.8477C66.1055 66.8477 66.4687 66.4844 66.4687 65.8516L66.4687 52.7031C66.4687 51.5313 65.8477 50.875 64.6289 50.875ZM50.5312 67.3281C50.9297 67.082 51.375 66.9297 51.9141 66.8711L51.9141 50.9102C51 51.0625 50.5312 51.6836 50.5312 52.7031L50.5312 67.3281ZM55.5469 56.5C55.125 56.5 54.7852 56.1484 54.7852 55.7266C54.7852 55.3047 55.125 54.9648 55.5469 54.9648L64.3359 54.9648C64.7578 54.9648 65.0977 55.3047 65.0977 55.7266C65.0977 56.1484 64.7578 56.5 64.3359 56.5L55.5469 56.5ZM55.5469 59.7227C55.125 59.7227 54.7852 59.3711 54.7852 58.9492C54.7852 58.5273 55.125 58.1875 55.5469 58.1875L62.2148 58.1875C62.6367 58.1875 62.9766 58.5273 62.9766 58.9492C62.9766 59.3711 62.6367 59.7227 62.2148 59.7227L55.5469 59.7227ZM52.3477 72.2148L65.0508 72.2148C64.4297 71.207 64.3359 69.918 64.8867 68.6992C64.7695 68.7227 64.6289 68.7344 64.4766 68.7344L52.4531 68.7344C51.2812 68.7344 50.5312 69.4141 50.5312 70.4688C50.5312 71.582 51.1641 72.2148 52.3477 72.2148Z" fill="url(#paint2_linear_1735_165)" style="mix-blend-mode:overlay"/>
<defs>
<filter id="filter0_bd_1735_165" x="0.787109" y="0.546997" width="115.426" height="120.906" filterUnits="userSpaceOnUse" color-interpolation-filters="sRGB">
<feFlood flood-opacity="0" result="BackgroundImageFix"/>
<feGaussianBlur in="BackgroundImageFix" stdDeviation="2"/>
<feComposite in2="SourceAlpha" operator="in" result="effect1_backgroundBlur_1735_165"/>
<feColorMatrix in="SourceAlpha" type="matrix" values="0 0 0 0 0 0 0 0 0 0 0 0 0 0 0 0 0 0 127 0" result="hardAlpha"/>
<feOffset/>
<feGaussianBlur stdDeviation="15"/>
<feComposite in2="hardAlpha" operator="out"/>
<feColorMatrix type="matrix" values="0 0 0 0 0.462745 0 0 0 0 0.239216 0 0 0 0 0.690196 0 0 0 1 0"/>
<feBlend mode="normal" in2="effect1_backgroundBlur_1735_165" result="effect2_dropShadow_1735_165"/>
<feBlend mode="normal" in="SourceGraphic" in2="effect2_dropShadow_1735_165" result="shape"/>
</filter>
<radialGradient id="paint0_radial_1735_165" cx="0" cy="0" r="1" gradientUnits="userSpaceOnUse" gradientTransform="translate(75.5777 50.3333) rotate(92.637) scale(162.172 72.7296)">
<stop stop-color="#602EA6"/>
<stop offset="1" stop-color="#C977D6"/>
</radialGradient>
<linearGradient id="paint1_linear_1735_165" x1="50.7" y1="48.6086" x2="79.2955" y2="89.1105" gradientUnits="userSpaceOnUse">
<stop stop-color="white"/>
<stop offset="1" stop-color="white" stop-opacity="0.5"/>
</linearGradient>
<linearGradient id="paint2_linear_1735_165" x1="58.5" y1="47" x2="58.5" y2="76" gradientUnits="userSpaceOnUse">
<stop stop-color="white" stop-opacity="0.8"/>
<stop offset="1" stop-color="white" stop-opacity="0.3"/>
</linearGradient>
</defs>
</svg>

<svg xmlns="http://www.w3.org/2000/svg" width="117" height="122" fill="none"><g filter="url(#a)"><path fill="url(#b)" d="M53.5 90.113a10 10 0 0 0 10 0l17.713-10.226a10 10 0 0 0 5-8.66V50.773a10 10 0 0 0-5-8.66L63.5 31.887a10 10 0 0 0-10 0L35.787 42.113a10 10 0 0 0-5 8.66v20.453a10 10 0 0 0 5 8.66L53.5 90.114Z"/><path stroke="url(#c)" d="M53.75 89.68a9.5 9.5 0 0 0 9.5 0l17.713-10.226a9.5 9.5 0 0 0 4.75-8.227V50.773a9.5 9.5 0 0 0-4.75-8.227L63.25 32.32a9.5 9.5 0 0 0-9.5 0L36.037 42.546a9.5 9.5 0 0 0-4.75 8.227v20.453a9.5 9.5 0 0 0 4.75 8.228L53.75 89.68Z" style="mix-blend-mode:overlay"/></g><path fill="url(#d)" d="M52.242 74.102c-2.379 0-3.597-1.208-3.597-3.621V52.668c0-2.45 1.207-3.68 3.632-3.68h12.446c2.425 0 3.633 1.242 3.633 3.68v13.441c0 1.172-.54 1.747-.985 2.192-1.453 1.465-1.148 3.375.328 3.96a.973.973 0 0 1 .657.903.933.933 0 0 1-.938.938H52.242ZM64.63 50.875h-11.18v15.973h12c.657 0 1.02-.364 1.02-.996V52.703c0-1.172-.621-1.828-1.84-1.828ZM50.53 67.328a3.22 3.22 0 0 1 1.383-.457v-15.96c-.914.151-1.383.773-1.383 1.792v14.625ZM55.547 56.5a.77.77 0 0 1-.762-.773.76.76 0 0 1 .762-.762h8.789a.76.76 0 0 1 .762.762.77.77 0 0 1-.762.773h-8.79Zm0 3.223a.77.77 0 0 1-.762-.774.76.76 0 0 1 .762-.761h6.668a.76.76 0 0 1 .762.761.77.77 0 0 1-.762.774h-6.668Zm-3.2 12.492h12.704c-.621-1.008-.715-2.297-.164-3.516a2.135 2.135 0 0 1-.41.035H52.453c-1.172 0-1.922.68-1.922 1.735 0 1.113.633 1.746 1.817 1.746Z" style="mix-blend-mode:overlay"/><defs><linearGradient id="c" x1="50.7" x2="79.296" y1="48.609" y2="89.111" gradientUnits="userSpaceOnUse"><stop stop-color="#fff"/><stop offset="1" stop-color="#fff" stop-opacity=".5"/></linearGradient><linearGradient id="d" x1="58.5" x2="58.5" y1="47" y2="76" gradientUnits="userSpaceOnUse"><stop stop-color="#fff" stop-opacity=".8"/><stop offset="1" stop-color="#fff" stop-opacity=".3"/></linearGradient><radialGradient id="b" cx="0" cy="0" r="1" gradientTransform="rotate(92.637 13.755 61.255) scale(162.172 72.7296)" gradientUnits="userSpaceOnUse"><stop stop-color="#602EA6"/><stop offset="1" stop-color="#C977D6"/></radialGradient><filter id="a" width="115.426" height="120.906" x=".787" y=".547" color-interpolation-filters="sRGB" filterUnits="userSpaceOnUse"><feFlood flood-opacity="0" result="BackgroundImageFix"/><feGaussianBlur in="BackgroundImageFix" stdDeviation="2"/><feComposite in2="SourceAlpha" operator="in" result="effect1_backgroundBlur_1735_165"/><feColorMatrix in="SourceAlpha" result="hardAlpha" values="0 0 0 0 0 0 0 0 0 0 0 0 0 0 0 0 0 0 127 0"/><feOffset/><feGaussianBlur stdDeviation="15"/><feComposite in2="hardAlpha" operator="out"/><feColorMatrix values="0 0 0 0 0.462745 0 0 0 0 0.239216 0 0 0 0 0.690196 0 0 0 1 0"/><feBlend in2="effect1_backgroundBlur_1735_165" result="effect2_dropShadow_1735_165"/><feBlend in="SourceGraphic" in2="effect2_dropShadow_1735_165" result="shape"/></filter></defs></svg>
